X:1
T:Title
%%score { ( 1 4 ) | ( 2 3 ) }
L:1/8
M:3/4
K:Bb
V:1 treble nm="Grand Piano"
V:4 treble 
V:2 bass 
V:3 bass 
V:1
 z2 z2[Q:1/4=100] [DB][Ec] | [Fd]3 [Ec] [DB][Fd] | c>B G2 [GB][EG] | [DF]3 [DB] [Ec][Fd] | %4
[M:2/4] [Fc]4 |[M:1/4] [DB][Ec] |[M:3/4] [Fd]3 [Ec] [DB][Fd] | c>B G2 Bc | d3 B dc |[M:2/4] [DB]4 | %10
[M:1/4] [DB]2 |[M:3/4] c3 B dc | z2 z2 .B2 | G3 c BG |[M:2/4] [DF]4 |[M:1/4] [DB][Ec] | %16
[M:3/4] [Fd]3 [Ec] [DB][Fd] | c>B G2 Bc | d3 B dc |[M:6/4] .[DB]6 z6 |] %20
V:2
 z2 z2 [B,,B,]2 | [B,,B,]3 [B,,F,] [B,,F,][B,,B,] | [E,G,E]2 [E,B,E]2 [E,B,]2 | %3
 [B,,B,]3 [B,,F,] [B,,F,][B,,B,] |[M:2/4] [F,A,]4 |[M:1/4] [B,,B,]2 | %6
[M:3/4] [B,,B,]3 [B,,F,] [B,,F,][B,,B,] | z2 z2 .D2 | [F,B,F]3 [F,B,D] [F,A,F][F,A,E] | %9
[M:2/4] [B,,B,]4 |[M:1/4] [B,,B,]2 |[M:3/4] [F,A,E]3 [F,B,D] [F,B,F][F,A,E] | %12
 [B,,B,]2 [B,,B,]2 [D,B,]2 | [E,B,E]3 [E,G,E] [E,G,E][E,B,E] |[M:2/4] [B,,B,]4 |[M:1/4] [B,,B,]2 | %16
[M:3/4] [B,,B,]3 [B,,F,] [B,,F,][B,,B,] | z2 z2 .D2 | [F,B,F]3 [F,B,D] [F,A,F][F,A,E] | %19
[M:6/4] .[B,,B,]6 z6 |] %20
V:3
 x6 | x6 | x6 | x6 |[M:2/4] x4 |[M:1/4] x2 |[M:3/4] x6 | [E,G,E]2 [E,B,E]2 [G,B,]-[G,B,E] | x6 | %9
[M:2/4] x4 |[M:1/4] x2 |[M:3/4] x6 | x6 | x6 |[M:2/4] x4 |[M:1/4] x2 |[M:3/4] x6 | %17
 [E,G,E]2 [E,B,E]2 [G,B,]-[G,B,E] | x6 |[M:6/4] x12 |] %20
V:4
 x6 | x6 | x6 | x6 |[M:2/4] x4 |[M:1/4] x2 |[M:3/4] x6 | x6 | x6 |[M:2/4] x4 |[M:1/4] x2 | %11
[M:3/4] x6 | [DB]2 [DF]2 F-[FA] | x6 |[M:2/4] x4 |[M:1/4] x2 |[M:3/4] x6 | x6 | x6 |[M:6/4] x12 |] %20

